src/static/logos/tsu.svg

<?xml version="1.0" encoding="UTF-8" standalone="no"?>
<svg width="256px" height="171px" viewBox="0 0 256 171" version="1.1" xmlns="http://www.w3.org/2000/svg" xmlns:xlink="http://www.w3.org/1999/xlink" xmlns:sketch="http://www.bohemiancoding.com/sketch/ns">
    <!-- Generator: Sketch 3.4.1 (15681) - http://www.bohemiancoding.com/sketch -->
    <title>Fill 1</title>
    <desc>Created with Sketch.</desc>
    <defs></defs>
    <g id="Page-1" stroke="none" stroke-width="1" fill="none" fill-rule="evenodd" sketch:type="MSPage">
        <path d="M51.1945879,55.3560586 C51.1885872,80.4599032 51.1945879,105.566748 51.1925877,130.672593 C51.2115898,132.681821 51.2785974,134.70905 51.7316487,136.675273 C51.9826772,137.693389 52.3367173,138.730506 53.0367966,139.535597 C53.7048723,140.300684 54.6739822,140.722732 55.6420919,140.964759 C57.073254,141.3208 58.5544219,141.381807 60.0235883,141.398808 C62.8519088,141.371805 65.695231,141.278795 68.4875474,140.789739 C66.9783764,133.46591 67.2784104,125.960059 67.2634087,118.531217 C77.2895448,118.529217 87.3156809,118.529217 97.3418171,118.531217 C97.3668199,121.312532 97.332816,124.096848 97.358819,126.879163 C97.4428285,130.826611 97.7718658,134.88207 99.3540451,138.549486 C100.383162,140.97476 102.210369,143.085 104.581637,144.276135 C107.791001,145.917321 111.479419,146.242357 115.030821,146.236357 C119.107283,146.168349 123.362766,145.578282 126.870163,143.35503 C129.533465,141.712844 131.384675,138.962532 132.185765,135.965193 C133.068865,132.637816 133.146874,129.090414 132.435794,125.722032 C131.691709,122.200633 129.57847,119.013272 126.634136,116.946038 C123.625795,114.722786 119.952379,113.798681 116.497988,112.523536 C112.204501,111.012365 107.912015,109.501194 103.616528,107.990023 C99.2090286,106.409844 94.7135192,105.029687 90.4960413,102.965453 C84.5883719,100.146134 79.0687464,96.1726837 75.3213218,90.7310671 C71.2388592,84.9264093 69.4406554,77.8316054 68.9285974,70.8348125 C68.5555551,65.6712274 68.6375644,60.4316337 69.7356889,55.3540583 C63.5559886,55.3540583 57.3742881,55.3520581 51.1945879,55.3560586 M104.027575,54.1289195 C101.441282,56.4651843 100.429167,60.0435897 100.324155,63.4279732 C100.250147,66.4043105 100.442168,69.5886713 102.094356,72.1669635 C103.359499,74.1221851 105.321721,75.4843394 107.320948,76.6054664 C110.247279,78.207648 113.376634,79.3897819 116.510989,80.5089088 C120.734468,81.9740748 124.957946,83.4382407 129.182425,84.9034067 C133.146874,86.2985648 137.17033,87.5587076 140.988763,89.3319085 C147.035448,92.0752194 152.733094,95.8986526 156.838559,101.187252 C156.834558,92.2172355 156.836559,83.2462189 156.838559,74.2762025 C147.878544,74.2491994 138.921529,74.3252081 129.963514,74.2912042 C129.898506,70.5267776 130.155535,66.7433489 129.673481,62.9979245 C129.211428,59.5225307 128.065298,55.8911192 125.375994,53.488847 C122.626682,51.0585716 118.789247,50.4305004 115.235845,50.523511 C111.285397,50.6185217 107.055918,51.406611 104.027575,54.1289195 M18.1528438,0.00478645397 C29.1650916,-0.00321445265 40.1783396,0.000786000657 51.1905874,0.00278622731 C51.1945879,9.72288766 51.1905874,19.4439892 51.1925877,29.1640906 C58.3924035,29.1680911 65.5942196,29.1620904 72.7940354,29.1660909 C72.7980359,34.9767493 72.790035,40.7904081 72.7980359,46.6030667 C75.7503704,40.7644051 80.5229112,35.9278571 86.1965541,32.7004914 C94.0344423,28.1909804 103.129473,26.4057781 112.072486,25.9227233 C120.865483,25.4846737 129.879504,26.0537382 138.215449,29.0820813 C144.589171,31.3833421 150.445835,35.3757945 154.444288,40.8974202 C155.329388,42.0965561 156.124478,43.3596992 156.840559,44.6658472 C156.832558,39.5002619 156.838559,34.3326763 156.838559,29.1660909 C167.846806,29.1620904 178.855054,29.1680911 189.863301,29.1640906 C189.895305,61.872797 189.865301,94.5835036 189.878303,127.29221 C189.935309,130.677594 190.223342,134.17199 191.684507,137.276341 C192.573608,139.20456 194.112783,140.833744 196.037001,141.750848 C198.429272,142.90998 201.124577,143.211014 203.750875,143.285022 C207.957351,143.401035 212.296843,142.399922 215.751235,139.921641 C219.224628,137.478364 221.484884,133.55392 222.24497,129.41245 C222.829037,126.567128 222.68402,123.652798 222.701022,120.767471 C222.703022,90.2330106 222.696022,59.6995508 222.705023,29.1660909 C233.71527,29.1640906 244.727518,29.1640906 255.737766,29.1660909 C255.739766,75.3053191 255.739766,121.443547 255.737766,167.581775 C245.208573,167.590776 234.678379,167.584776 224.151186,167.584776 C224.144186,164.401415 224.159187,161.217054 224.144186,158.034694 C219.549665,162.968253 213.662998,166.656671 207.262273,168.751908 C202.47573,170.335087 197.419157,171.047168 192.384587,170.959158 C185.00075,170.931155 177.301878,169.516995 171.202187,165.126497 C165.545546,161.135045 161.869129,154.898338 159.862902,148.373599 C156.882564,154.245264 152.229037,159.214827 146.675407,162.730226 C139.838633,167.103721 131.864729,169.409983 123.857822,170.387093 C118.563222,171.034167 113.207615,171.096174 107.886012,170.79614 C101.234258,170.383093 94.5384994,169.265966 88.3858022,166.616666 C83.3552322,164.463422 78.7707127,161.160048 75.4223332,156.805554 C74.4482229,155.558413 73.5801245,154.234263 72.7940354,152.864108 C72.7980359,157.277608 72.7940354,161.693108 72.7960357,166.108608 C66.8603631,167.839805 60.699665,168.652897 54.5329662,168.924928 C50.6825299,169.082946 46.8210923,169.158954 42.9726562,168.899925 C39.1362215,168.614892 35.2687833,167.946817 31.7493845,166.336634 C28.6280308,164.907472 25.8667179,162.669219 23.8944944,159.848899 C21.7632529,156.847559 20.4651058,153.339162 19.6390122,149.772757 C18.5528891,145.036221 18.2208515,140.161668 18.1528438,135.314119 C18.1508435,108.661099 18.1568442,82.0090788 18.1508435,55.3560586 C12.1021581,55.3500579 6.05247262,55.3560586 0.003787211,55.3540583 C-0.000213242307,46.6240691 -0.00221346896,37.8940799 0.003787211,29.1660909 C6.05247262,29.1620904 12.1021581,29.1680911 18.1508435,29.1640906 C18.154844,19.4439892 18.1528438,9.72288766 18.1528438,0.00478645397 Z M156.842095,0 L256,0 C256,7.19366583 255.998002,14.3853337 256,21.5770016 C222.947698,21.5809975 189.894397,21.5789995 156.840097,21.5789995 C156.844093,14.3853337 156.840097,7.19366583 156.842095,0 Z" id="Fill-1" fill="#5CD39B" sketch:type="MSShapeGroup"></path>
    </g>
</svg>

<svg width="256" height="171" xmlns="http://www.w3.org/2000/svg"><path d="M51.195 55.356c-.006 25.104 0 50.21-.002 75.317.019 2.009.086 4.036.539 6.002.25 1.018.605 2.056 1.305 2.86.668.766 1.637 1.188 2.605 1.43 1.431.356 2.912.417 4.382.434 2.828-.027 5.671-.12 8.464-.61-1.51-7.323-1.21-14.829-1.225-22.258 10.027-.002 20.053-.002 30.079 0 .025 2.782-.01 5.566.017 8.348.084 3.948.413 8.003 1.995 11.67 1.03 2.426 2.856 4.536 5.228 5.727 3.209 1.641 6.897 1.966 10.449 1.96 4.076-.068 8.332-.658 11.84-2.881 2.662-1.642 4.514-4.392 5.315-7.39.883-3.327.96-6.875.25-10.243-.744-3.521-2.858-6.709-5.802-8.776-3.008-2.223-6.682-3.147-10.136-4.422l-12.881-4.534c-4.408-1.58-8.903-2.96-13.121-5.025-5.908-2.819-11.427-6.792-15.175-12.234-4.082-5.805-5.88-12.9-6.392-19.896-.373-5.164-.291-10.403.807-15.48-6.18 0-12.362-.003-18.541.001m52.833-1.227c-2.587 2.336-3.599 5.915-3.704 9.299-.074 2.976.118 6.16 1.77 8.739 1.265 1.955 3.228 3.317 5.227 4.438 2.926 1.603 6.056 2.785 9.19 3.904l12.671 4.394c3.965 1.396 7.988 2.656 11.807 4.429 6.046 2.743 11.744 6.567 15.85 11.855-.004-8.97-.002-17.94 0-26.91-8.96-.028-17.917.048-26.875.014-.065-3.764.192-7.548-.29-11.293-.463-3.475-1.609-7.107-4.298-9.51-2.75-2.43-6.587-3.057-10.14-2.964-3.95.095-8.18.883-11.208 3.605M18.153.005C29.165-.003 40.178 0 51.19.003c.004 9.72 0 19.441.002 29.161 7.2.004 14.401-.002 21.601.002.004 5.81-.004 11.624.004 17.437 2.952-5.839 7.725-10.675 13.399-13.903 7.837-4.509 16.932-6.294 25.875-6.777 8.793-.438 17.808.13 26.143 3.16 6.374 2.3 12.23 6.293 16.23 11.814.884 1.2 1.68 2.463 2.396 3.769-.008-5.166-.002-10.333-.002-15.5 11.008-.004 22.016.002 33.024-.002.032 32.709.002 65.42.015 98.128.057 3.386.345 6.88 1.807 9.984.889 1.929 2.428 3.558 4.352 4.475 2.392 1.159 5.088 1.46 7.714 1.534 4.206.116 8.546-.885 12-3.363 3.474-2.444 5.734-6.368 6.494-10.51.584-2.845.439-5.76.456-8.645.002-30.534-.005-61.067.004-91.6 11.01-.003 22.023-.003 33.033 0 .002 46.138.002 92.277 0 138.415-10.53.009-21.06.003-31.587.003-.007-3.184.008-6.368-.007-9.55-4.594 4.933-10.481 8.622-16.882 10.717-4.786 1.583-9.843 2.295-14.877 2.207-7.384-.028-15.083-1.442-21.183-5.833-5.656-3.991-9.333-10.228-11.34-16.752-2.98 5.871-7.633 10.84-13.187 14.356-6.836 4.374-14.81 6.68-22.817 7.657-5.295.647-10.65.71-15.972.41-6.652-.414-13.348-1.531-19.5-4.18-5.03-2.154-9.615-5.457-12.964-9.811a33.338 33.338 0 01-2.628-3.942c.004 4.414 0 8.83.002 13.245-5.936 1.73-12.096 2.544-18.263 2.816-3.85.158-7.712.234-11.56-.025-3.837-.285-7.704-.953-11.224-2.563-3.121-1.43-5.882-3.668-7.855-6.488-2.13-3.001-3.429-6.51-4.255-10.076-1.086-4.737-1.418-9.611-1.486-14.459-.002-26.653.004-53.305-.002-79.958-6.049-.006-12.099 0-18.147-.002-.004-8.73-.006-17.46 0-26.188 6.048-.004 12.098.002 18.147-.002.004-9.72.002-19.441.002-29.16zM156.843 0H256c0 7.194-.002 14.385 0 21.577-33.052.004-66.106.002-99.16.002.004-7.194 0-14.385.002-21.579z" fill="#5CD39B" fill-rule="evenodd"/></svg>
